packages/sources/assets/src/assets/maestro.svg

<svg width="58" height="40" viewBox="0 0 58 40" fill="none" xmlns="http://www.w3.org/2000/svg">
<rect x="0.5" y="0.5" width="57" height="39" rx="3.5" fill="white" stroke="#F3F3F3"/>
<path d="M34.3102 28.9765H23.9591V10.5122H34.3102V28.9765Z" fill="#6C6BBD"/>
<path d="M24.6223 19.7429C24.6223 15.9973 26.3891 12.6608 29.1406 10.5107C27.1285 8.93843 24.5892 7.99998 21.8294 7.99998C15.2961 7.99998 10 13.2574 10 19.7429C10 26.2283 15.2961 31.4857 21.8294 31.4857C24.5892 31.4857 27.1285 30.5473 29.1406 28.975C26.3891 26.8249 24.6223 23.4884 24.6223 19.7429Z" fill="#EB001B"/>
<path d="M48.2706 19.7429C48.2706 26.2283 42.9745 31.4857 36.4412 31.4857C33.6814 31.4857 31.1421 30.5473 29.1293 28.975C31.8815 26.8249 33.6483 23.4884 33.6483 19.7429C33.6483 15.9973 31.8815 12.6608 29.1293 10.5107C31.1421 8.93843 33.6814 7.99998 36.4412 7.99998C42.9745 7.99998 48.2706 13.2574 48.2706 19.7429Z" fill="#0099DF"/>
</svg>

<svg width="58" height="40" fill="none" xmlns="http://www.w3.org/2000/svg"><rect x=".5" y=".5" width="57" height="39" rx="3.5" fill="#fff" stroke="#F3F3F3"/><path d="M34.31 28.977H23.96V10.512h10.35v18.465Z" fill="#6C6BBD"/><path d="M24.622 19.743c0-3.746 1.767-7.082 4.519-9.232A11.835 11.835 0 0 0 21.829 8C15.296 8 10 13.257 10 19.743c0 6.485 5.296 11.743 11.83 11.743 2.76 0 5.299-.939 7.31-2.511-2.75-2.15-4.518-5.487-4.518-9.232" fill="#EB001B"/><path d="M48.27 19.743c0 6.485-5.296 11.743-11.829 11.743a11.84 11.84 0 0 1-7.312-2.511c2.752-2.15 4.52-5.487 4.52-9.232 0-3.746-1.768-7.082-4.52-9.232A11.839 11.839 0 0 1 36.441 8c6.533 0 11.83 5.257 11.83 11.743" fill="#0099DF"/></svg>
